X:712
T:Lad O'Beirne's jig
T:Coughlan's jig
T:Connie O'Connell's jig
T:Burke's
T:Charlie Mulvihill's jig
R:Jig
S:Richard Darsie's web page
Z:Transcription, chords:Mike Long
M:6/8
L:1/8
K:D
A|\
"D"dAF AGF|dAF AGF|"A"A,CE GFG|"A"A,CE "G"GFE|\
"D"DFA "G"DGB|"A"Adc "D"d2g|"D"fed "A"cBA|"G"GFE "D"D2:|
|:d|\
"D"fdf aga|"D"fdd "A"e2f|"C"e=ce gfg|ege =cde|\
"D"fef "A"gfg|"D"aga "G"bag|"D"fed "A"cBA|"G"GFE "D"D2:|
